X:10
%%etbk:tnset id:4,pos:2,rep:3x,ant:
%%etbk:wsite http://www.thesession.org/tunes/display/1651
%%etbk:video src:ytube,cde:aSQSkj_QjcA,desc:
%%etbk:skill ?
%%etbk:pldat 2013-11-21T18:00,2013-11-13T17:36,2013-11-04T18:46,2013-10-24T18:59,2013-10-08T15:09,2013-09-27T16:42,2013-09-01T15:32,2013-05-15T17:29
T: Sergeant Early's Dream
Z: Piano Box Version by Martin Fleischmann
H: Created 2013-02-19 /  Last Modified 2013-02-19
M: 4/4
L: 1/8
R: Reel
K: Ddor
|:!5!A!1!DD!2!E !1!F!3!A!5!c!3!A|!2!G!1!E!1!C!2!D !2!E!4!F!5!G!3!E|!1!D3E !3!F2!1!F!2!G|!3!A!5!d!3!de !5!f!4!e!3!d!1!A|
!5!ADDE FAcA|GECD EFGE|D3E FAcA|!2!G!1!F!2!E!3!F !1!D2:|
|:!2!A!5!d!3!dc d2de|f2ed !2!c!1!A!1!G!3!F|!2!E!1!C!2!E!3!G !5!c2!3!cd|!5!eccB cABc|
!1!A!3!ddc d2de|f2ed !4!c!1!A!2!F!4!A|!3!G!1!EEE !5!c!1!EEE|!3!E!2!D!1!CE !1!D2:|
